X: 38482
T: Steampacket, The
R: reel
M: 4/4
K: Gmajor
|B~G3 AGFA|D~G3 A2dc|A~G3 AGFG|=F3G ABcA|
BGGB AGFA|D~G3 A2dc|A~G3 AGFG|=F3G ABcA|
d~g3 aggf|dgge fdcA|d~g3 agfg|dcde fdcA|
d~g3 agfg|a2ag ~f3g|a2(3gfe fdec|d2eg fdcA|

